src/assets/icons/volume-off.svg

<svg width="14" height="14" viewBox="0 0 14 14" fill="none" xmlns="http://www.w3.org/2000/svg">
<g id="volume-off">
<g clip-path="url(#clip0_156_4571)">
<path id="Vector" fill-rule="evenodd" clip-rule="evenodd" d="M11.8096 0.0668654C12.0443 0.179669 12.1935 0.417022 12.1935 0.677425V13.3226C12.1935 13.583 12.0443 13.8203 11.8096 13.9331C11.5749 14.0459 11.2963 14.0142 11.0929 13.8515L6.76238 10.3871H2.48388C2.10975 10.3871 1.80646 10.0838 1.80646 9.70967V4.29033C1.80646 3.9162 2.10975 3.61291 2.48388 3.61291H6.76238L11.0929 0.14845C11.2963 -0.0142227 11.5749 -0.0459384 11.8096 0.0668654ZM10.8387 2.08688L7.42318 4.8193C7.30307 4.91539 7.15382 4.96774 7 4.96774H3.16129V9.03226H7C7.15382 9.03226 7.30307 9.08461 7.42318 9.1807L10.8387 11.9131V2.08688Z" fill="black"/>
</g>
</g>
<defs>
<clipPath id="clip0_156_4571">
<rect width="14" height="14" fill="white"/>
</clipPath>
</defs>
</svg>

<svg xmlns="http://www.w3.org/2000/svg" fill="none" viewBox="0 0 14 14"><g clip-path="url(#a)"><path fill="#000" fill-rule="evenodd" d="M11.81.067c.234.113.383.35.383.61v12.646a.677.677 0 0 1-1.1.528l-4.33-3.464h-4.28a.677.677 0 0 1-.677-.677V4.29c0-.374.304-.677.678-.677h4.278l4.33-3.465a.68.68 0 0 1 .718-.081m-.971 2.02L7.423 4.819A.68.68 0 0 1 7 4.968H3.161v4.064H7c.154 0 .303.053.423.149l3.416 2.732z" clip-rule="evenodd"/></g><defs><clipPath id="a"><path fill="#fff" d="M0 0h14v14H0z"/></clipPath></defs></svg>
